build/assets/images/content/logo_custom.svg

<svg width="2875" height="1342" fill="none" xmlns="http://www.w3.org/2000/svg"><path d="M1676.04 527.015c-37.67 27.211-60.68 55.934-71.15 89.192v65.004c10.47 28.723 33.48 55.934 71.15 84.657l765.83 575.972H2875l-920.67-692.375L2843.61.932h-445.68l-721.89 526.083z" fill="#BB240D"/><path d="M435.225.932H0L1855.99 1341.84h435.22L435.225.932z" fill="#E67563"/></svg>

<svg width="2875" height="1342" viewBox="0 0 2875 1342" fill="none" xmlns="http://www.w3.org/2000/svg">
<path d="M1676.04 527.015C1638.37 554.226 1615.36 582.949 1604.89 616.207V681.211C1615.36 709.934 1638.37 737.145 1676.04 765.868L2441.87 1341.84H2875L1954.33 649.465L2843.61 0.931641H2397.93L1676.04 527.015Z" fill="#BB240D"/>
<path d="M435.225 0.931641H0L1855.99 1341.84H2291.21L435.225 0.931641Z" fill="#E67563"/>
</svg>
